X:2112 
T:C'raad t'ou gholl my chaillin veg dhoan 
C:Traditional
O:Isle of Man
Z:Clague collection
B:Kiaull Vannin #112 
N:(should be  3/8) 
M:2/4 
L:1/8 
K:D 
E2 GA|B2 A2|GE E2|E4|e2 ef|g2 f2|ed B2|B4| 
e2 ee|e3 B|cB A2|AG A2|d2 dc|B2 BA|GE E2|E4|| 

